X: 338
T: A Rianxeira
R: waltz
M: 3/4
K: Dmajor
A2 A2 A2|A2 B2 A2|A5|F5|A2 A2 A2|A2 B2 A2|
G5-|G5|c3 c c2|d2 c2 B2|B4 A2|c2 B2 A2|A4 G2|
B2 A2 G2||F5-|1 F5:|2 F4 D2|:F2 F2 F2|F4 G2|A2 A2 A2|
A2 A2 A2|A4 B2|G4 F2-|F5-|1 F4 D2:|2 F4 A2||B2 B2 B2|
B4 B2|B2 A2 F2|A2 A2 A2|A4 c2|B4 A2 -|A6-|A4 A2|
B2 B2 B2|B4 B2|B2 A2 F2|A2 A2 A2|A4 B2|G4 F2 -|F6-|
F6|:A2 A2 A2|A4 F2|A2 A2 A2|A4 F2|A2 A2 A2|B2 B2 B2|
c6-|c6|c3 c c2|c2 c2 B2|d4 Bc/B/|A6|
c3 B A2|B2 A2 G2|F6-|1 F6:|2 d6||

